src/assets/outline/BookSaved.svg

<?xml version="1.0" encoding="UTF-8"?>
<svg width="24" height="24" viewBox="0 0 24 24" xmlns="http://www.w3.org/2000/svg">
 <path d="m12 22.08c-0.3 0-0.6-0.07-0.85-0.21-1.87-1.02-5.15-2.1-7.21-2.37l-0.28998-0.04c-1.31-0.16-2.39-1.39-2.39-2.72v-12.08c0-0.79 0.31-1.51 0.88-2.03s1.31-0.77001 2.09-0.70001c2.19 0.18 5.51 1.28 7.3901 2.45l0.2399 0.14002c0.07 0.03 0.2201 0.04 0.2801 0l0.1599-0.10004c0.67-0.42 1.51-0.83001 2.43-1.2 0.23-0.09 0.49-0.05999 0.7 0.08001s0.3301 0.37 0.3301 0.62v2.68l0.83-0.54999c0.25-0.17 0.5799-0.17 0.8299 0l0.8301 0.54999v-3.8199c0-0.36 0.2599-0.67006 0.6099-0.74006 0.29-0.05 0.5801-0.08998 0.8401-0.10998h0.12c0.73-0.06 1.4799 0.19002 2.0399 0.71002 0.57 0.52 0.88 1.24 0.88 2.03v12.07c0 1.34-1.0799 2.56-2.3999 2.72l-0.33 0.04c-2.06 0.27-5.36 1.36-7.19 2.37-0.22 0.14-0.52 0.21-0.82 0.21zm-8.0201-18.67c-0.32 0-0.60997 0.11001-0.83997 0.32001-0.25 0.23-0.39001 0.55999-0.39001 0.92999v12.08c0 0.59 0.51001 1.16 1.08 1.24l0.29999 0.04c2.25 0.3 5.7 1.43 7.7 2.53 0.09 0.04 0.2199 0.05 0.2699 0.03 2.01-1.11 5.4701-2.2499 7.7301-2.5499l0.3399-0.0401c0.57-0.07 1.0801-0.65 1.0801-1.24v-12.07c0-0.37-0.1401-0.68999-0.3901-0.92999-0.25-0.23-0.5999-0.34001-0.9599-0.32001h-0.14v4.57c0 0.28-0.1501 0.52997-0.4001 0.65997s-0.5399 0.12002-0.7699-0.03998l-1.58-1.05-1.5801 1.05c-0.23 0.15-0.52 0.16998-0.77 0.03998-0.24-0.13-0.3999-0.37997-0.3999-0.65997v-2.93c-0.43 0.21-0.8201 0.42-1.1601 0.62l-0.1599 0.09997c-0.55 0.34-1.33 0.34001-1.86 0.01001l-0.24-0.14996c-1.69-1.06-4.7701-2.08-6.7301-2.24h-0.13z"/>
 <path d="m12 21.24c-0.41 0-0.75-0.34-0.75-0.75v-15c0-0.41 0.34-0.75 0.75-0.75s0.75 0.34 0.75 0.75v15c0 0.42-0.34 0.75-0.75 0.75z"/>
 <path d="m19 8.7505c-0.15 0-0.29-0.04001-0.42-0.13001l-1.58-1.05-1.58 1.05c-0.23 0.15-0.52 0.16998-0.77 0.03998-0.24-0.13-0.4-0.37997-0.4-0.65997v-4.08c0-0.31 0.19-0.58001 0.47-0.70001 1.38-0.55 2.89-0.97999 4.16-1.18 0.22-0.04 0.44 0.03004 0.61 0.17004s0.26 0.35001 0.26 0.57001v5.22c0 0.28-0.15 0.52997-0.4 0.65997-0.11 0.06-0.23 0.09003-0.35 0.09003zm-2-2.83c0.14 0 0.29 0.04 0.42 0.13l0.83 0.54999v-2.91c-0.8 0.18-1.67 0.44-2.5 0.75v2.16l0.83-0.54999c0.13-0.09 0.28-0.13 0.42-0.13z"/>
</svg>

<svg width="24" height="24" viewBox="0 0 24 24"  xmlns="http://www.w3.org/2000/svg">
<path d="M11.9998 22.0795C11.6998 22.0795 11.3998 22.0095 11.1498 21.8695C9.27978 20.8495 5.99976 19.7695 3.93976 19.4995L3.64978 19.4595C2.33978 19.2995 1.25977 18.0695 1.25977 16.7395V4.6595C1.25977 3.8695 1.56977 3.14953 2.13977 2.62953C2.70977 2.10953 3.44974 1.85952 4.22974 1.92952C6.41974 2.10952 9.73975 3.20953 11.6198 4.37953L11.8597 4.51955C11.9297 4.54955 12.0798 4.55955 12.1398 4.51955L12.2997 4.41951C12.9697 3.99951 13.8097 3.5895 14.7297 3.2195C14.9597 3.1295 15.2197 3.15951 15.4297 3.29951C15.6397 3.43951 15.7598 3.66951 15.7598 3.91951V6.5995L16.5898 6.04951C16.8398 5.87951 17.1697 5.87951 17.4197 6.04951L18.2498 6.5995V2.77956C18.2498 2.41956 18.5097 2.1095 18.8597 2.0395C19.1497 1.9895 19.4398 1.94952 19.6998 1.92952C19.7198 1.92952 19.7998 1.92952 19.8198 1.92952C20.5498 1.86952 21.2997 2.11954 21.8597 2.63954C22.4297 3.15954 22.7397 3.87951 22.7397 4.66951V16.7395C22.7397 18.0795 21.6598 19.2995 20.3398 19.4595L20.0098 19.4995C17.9498 19.7695 14.6498 20.8595 12.8198 21.8695C12.5998 22.0095 12.2998 22.0795 11.9998 22.0795ZM3.97974 3.4095C3.65974 3.4095 3.36977 3.51951 3.13977 3.72951C2.88977 3.95951 2.74976 4.2895 2.74976 4.6595V16.7395C2.74976 17.3295 3.25977 17.8995 3.82977 17.9795L4.12976 18.0195C6.37976 18.3195 9.82977 19.4495 11.8298 20.5495C11.9198 20.5895 12.0497 20.5995 12.0997 20.5795C14.1097 19.4695 17.5698 18.3296 19.8298 18.0296L20.1697 17.9895C20.7397 17.9195 21.2498 17.3395 21.2498 16.7495V4.67952C21.2498 4.30952 21.1097 3.98953 20.8597 3.74953C20.6097 3.51953 20.2598 3.40952 19.8998 3.42952C19.8698 3.42952 19.7798 3.42952 19.7598 3.42952V7.99953C19.7598 8.27953 19.6097 8.5295 19.3597 8.6595C19.1097 8.7895 18.8198 8.77952 18.5898 8.61952L17.0098 7.56953L15.4297 8.61952C15.1997 8.76952 14.9097 8.7895 14.6597 8.6595C14.4197 8.5295 14.2598 8.27953 14.2598 7.99953V5.06953C13.8298 5.27953 13.4397 5.48953 13.0997 5.68953L12.9398 5.7895C12.3898 6.1295 11.6098 6.12951 11.0798 5.79951L10.8398 5.64955C9.14978 4.58955 6.06974 3.5695 4.10974 3.4095C4.05974 3.4095 4.01974 3.4095 3.97974 3.4095Z" />
<path d="M12 21.2402C11.59 21.2402 11.25 20.9002 11.25 20.4902V5.49023C11.25 5.08023 11.59 4.74023 12 4.74023C12.41 4.74023 12.75 5.08023 12.75 5.49023V20.4902C12.75 20.9102 12.41 21.2402 12 21.2402Z" />
<path d="M19 8.75048C18.85 8.75048 18.71 8.71047 18.58 8.62047L17 7.57048L15.42 8.62047C15.19 8.77047 14.9 8.79045 14.65 8.66045C14.41 8.53045 14.25 8.28048 14.25 8.00048V3.92046C14.25 3.61046 14.44 3.34045 14.72 3.22045C16.1 2.67045 17.61 2.24046 18.88 2.04046C19.1 2.00046 19.32 2.0705 19.49 2.2105C19.66 2.3505 19.75 2.56051 19.75 2.78051V8.00048C19.75 8.28048 19.6 8.53045 19.35 8.66045C19.24 8.72045 19.12 8.75048 19 8.75048ZM17 5.92046C17.14 5.92046 17.29 5.96046 17.42 6.05046L18.25 6.60045V3.69048C17.45 3.87048 16.58 4.13048 15.75 4.44048V6.60045L16.58 6.05046C16.71 5.96046 16.86 5.92046 17 5.92046Z" />
</svg>
